packages/kaspersky-hexa-ui-icons/src/iconsSVGs/24/SafeKids.svg

<svg width="24" height="24" viewBox="0 0 24 24" fill="none" xmlns="http://www.w3.org/2000/svg">
<path d="M9.5 14C10.3284 14 11 13.3284 11 12.5C11 11.6716 10.3284 11 9.5 11C8.67157 11 8 11.6716 8 12.5C8 13.3284 8.67157 14 9.5 14Z" fill="black"/>
<path d="M16 12.5C16 13.3284 15.3284 14 14.5 14C13.6716 14 13 13.3284 13 12.5C13 11.6716 13.6716 11 14.5 11C15.3284 11 16 11.6716 16 12.5Z" fill="black"/>
<path d="M12 18.4959C13.6569 18.4959 15 17.1527 15 15.4959H9C9 17.1527 10.3431 18.4959 12 18.4959Z" fill="black"/>
<path fill-rule="evenodd" clip-rule="evenodd" d="M12 2C8.18135 2 4.9889 4.67467 4.1915 8.2531C2.90664 8.7714 2 10.0291 2 11.5C2 12.9079 2.83059 14.1202 4.02817 14.6761C4.37141 18.778 7.80943 22 12 22C16.1906 22 19.6286 18.778 19.9718 14.6761C21.1694 14.1202 22 12.9079 22 11.5C22 10.0291 21.0934 8.7714 19.8085 8.2531C19.0111 4.67467 15.8186 2 12 2ZM6.34114 8C7.16465 5.66982 9.38794 4 12 4V5C12 6.65685 10.6569 8 9 8H6.34114ZM5.3672 10L5.23818 10.0226C4.53468 10.1459 4 10.7615 4 11.5C4 12.2246 4.51473 12.8311 5.19904 12.97L6.00303 13.1331L6 14V14.0017C6.00089 17.3146 8.68684 20 12 20C15.3137 20 18 17.3137 18 14L17.9998 13.957L17.9941 13.1337L18.801 12.97C19.4853 12.8311 20 12.2246 20 11.5C20 10.7615 19.4653 10.1459 18.7618 10.0226L18.6328 10H17C15.3644 10 13.9122 9.21465 13 8.00048C12.0878 9.21466 10.6356 10 9 10H5.3672ZM14 5C14 6.65685 15.3431 8 17 8H17.6589C17.0564 6.29536 15.7049 4.94411 14 4.34148V5Z" fill="black"/>
</svg>

<svg xmlns="http://www.w3.org/2000/svg" width="24" height="24" fill="none" viewBox="0 0 24 24"><path fill="#000" d="M9.5 14c.828 0 1.5-.672 1.5-1.5S10.328 11 9.5 11 8 11.672 8 12.5 8.672 14 9.5 14m6.5-1.5c0 .828-.672 1.5-1.5 1.5s-1.5-.672-1.5-1.5.672-1.5 1.5-1.5 1.5.672 1.5 1.5m-4 5.996c1.657 0 3-1.343 3-3H9c0 1.657 1.343 3 3 3"/><path fill="#000" fill-rule="evenodd" d="M12 2C8.1814 2 4.9889 4.6747 4.1915 8.2531 2.9066 8.7714 2 10.0291 2 11.5c0 1.4079.8306 2.6202 2.0282 3.1761C4.3714 18.778 7.8094 22 12 22s7.6286-3.222 7.9718-7.3239C21.1694 14.1202 22 12.9079 22 11.5c0-1.4709-.9066-2.7286-2.1915-3.2469C19.0111 4.6747 15.8186 2 12 2M6.3411 8C7.1647 5.6698 9.388 4 12 4v1c0 1.6569-1.3431 3-3 3zm-.9739 2-.129.0226C4.5347 10.1459 4 10.7615 4 11.5c0 .7246.5147 1.3311 1.199 1.47l.804.1631L6 14v.0017C6.0009 17.3146 8.6868 20 12 20c3.3137 0 6-2.6863 6-6l-.0002-.043-.0057-.8233.8069-.1637c.6843-.1389 1.199-.7454 1.199-1.47 0-.7385-.5347-1.3541-1.2382-1.4774L18.6328 10H17c-1.6356 0-3.0878-.7853-4-1.9995C12.0878 9.2147 10.6356 10 9 10zM14 5c0 1.6569 1.3431 3 3 3h.6589C17.0564 6.2954 15.7049 4.9441 14 4.3415z" clip-rule="evenodd"/></svg>
